img/arrow-feature.svg

<svg width="30" height="30" viewBox="0 0 30 30" fill="none" xmlns="http://www.w3.org/2000/svg">
<path d="M19.8158 0H15.8536L26.0377 15L15.8536 30H19.8158L30 15L19.8158 0Z" fill="url(#paint0_linear)"/>
<path d="M11.8913 0H7.92453L18.1087 15L7.92453 30H11.8913L22.0755 15L11.8913 0Z" fill="url(#paint1_linear)"/>
<path d="M3.96226 0H0L10.1842 15L0 30H3.96226L14.1464 15L3.96226 0Z" fill="url(#paint2_linear)"/>
<defs>
<linearGradient id="paint0_linear" x1="0.869565" y1="0" x2="28.913" y2="0" gradientUnits="userSpaceOnUse">
<stop stop-color="#109FFA"/>
<stop offset="1" stop-color="#046AB2"/>
</linearGradient>
<linearGradient id="paint1_linear" x1="0.869565" y1="0" x2="28.913" y2="0" gradientUnits="userSpaceOnUse">
<stop stop-color="#109FFA"/>
<stop offset="1" stop-color="#046AB2"/>
</linearGradient>
<linearGradient id="paint2_linear" x1="0.869565" y1="0" x2="28.913" y2="0" gradientUnits="userSpaceOnUse">
<stop stop-color="#109FFA"/>
<stop offset="1" stop-color="#046AB2"/>
</linearGradient>
</defs>
</svg>

<svg width="30" height="30" viewBox="0 0 30 30" fill="none" xmlns="http://www.w3.org/2000/svg"><path d="M19.816 0h-3.962l10.184 15-10.184 15h3.962L30 15 19.816 0z" fill="url(#paint0_linear)"/><path d="M11.891 0H7.925l10.184 15L7.925 30h3.966l10.185-15L11.89 0z" fill="url(#paint1_linear)"/><path d="M3.962 0H0l10.184 15L0 30h3.962l10.184-15L3.962 0z" fill="url(#paint2_linear)"/><defs><linearGradient id="paint0_linear" x1=".87" y1="0" x2="28.913" y2="0" gradientUnits="userSpaceOnUse"><stop stop-color="#109FFA"/><stop offset="1" stop-color="#046AB2"/></linearGradient><linearGradient id="paint1_linear" x1=".87" y1="0" x2="28.913" y2="0" gradientUnits="userSpaceOnUse"><stop stop-color="#109FFA"/><stop offset="1" stop-color="#046AB2"/></linearGradient><linearGradient id="paint2_linear" x1=".87" y1="0" x2="28.913" y2="0" gradientUnits="userSpaceOnUse"><stop stop-color="#109FFA"/><stop offset="1" stop-color="#046AB2"/></linearGradient></defs></svg>
